symbols/web/bluetooth_disabled/materialsymbolsoutlined/bluetooth_disabled_wght100_48px.svg

<svg xmlns="http://www.w3.org/2000/svg" height="48" width="48"><path d="M43.1 43.9 32.6 33.4 24 42h-.55V25.35L12.8 36l-.8-.8L23.2 24 7 7.8l.8-.8 36.1 36.1Zm-18.55-4.05 7.25-7.25-7.25-7.25ZM27.1 21.7l-.8-.8 5.5-5.5-7.25-7.25v11l-1.1-1.1V6H24l9.4 9.4Z"/></svg>

<svg xmlns="http://www.w3.org/2000/svg" height="48" width="48"><path d="M43.1 43.9 32.6 33.4 23.3 42.7H23.45V25.35L12.8 36L12 35.2L23.2 24L7 7.8L7.8 7L43.9 43.1ZM24.55 39.85 31.8 32.6 24.55 25.35ZM27.1 21.7 26.3 20.9 31.8 15.4 24.55 8.15V19.15L23.45 18.05V5.3H23.3L33.4 15.4Z"/></svg>
